tokens/POKERPASS-9d4f42/logo.svg

<svg xmlns:inkscape="http://www.inkscape.org/namespaces/inkscape" xmlns:sodipodi="http://sodipodi.sourceforge.net/DTD/sodipodi-0.dtd" xmlns="http://www.w3.org/2000/svg" xmlns:svg="http://www.w3.org/2000/svg" fill="none" version="1.1" id="svg429" sodipodi:docname="Xcard=horizontal-cropped.svg" viewBox="-0.25 0.75 27.5 29.14">
  <sodipodi:namedview id="namedview431" pagecolor="#ffffff" bordercolor="#666666" borderopacity="1.0" inkscape:showpageshadow="2" inkscape:pageopacity="0.0" inkscape:pagecheckerboard="0" inkscape:deskcolor="#d1d1d1" showgrid="false"/>
  <rect y="6.6241665" width="18" height="24" rx="2" transform="rotate(-19.574)" fill="url(#paint0_linear_153_1141)" stroke="url(#paint1_linear_153_1141)" stroke-width="0.5" id="rect366" x="-2.3553731" style="fill:url(#paint0_linear_153_1141);stroke:url(#paint1_linear_153_1141)"/>
  <rect x="9.00037" y="1" width="18" height="24" rx="2" fill="url(#paint2_linear_153_1141)" stroke="url(#paint3_linear_153_1141)" stroke-width="0.5" id="rect368" style="fill:url(#paint2_linear_153_1141);stroke:url(#paint3_linear_153_1141)"/>
  <path d="M 18.2668,12.4725 14.9853,6.32178 13.0004,7.35615 15.2755,12.988 c 0.0588,0.1454 0.0588,0.3058 0,0.4507 l -2.2751,5.6319 1.9849,1.0343 3.2815,-6.1507 3.2815,6.1507 1.985,-1.0343 -2.2752,-5.6319 c -0.0588,-0.1454 -0.0588,-0.3058 0,-0.4507 l 2.2752,-5.63185 -1.985,-1.03437 z" fill="#fcfcfd" id="path370"/>
  <defs id="defs427">
    <linearGradient id="paint0_linear_153_1141" x1="0.025210099" y1="7.0304599" x2="23.2927" y2="14.4002" gradientUnits="userSpaceOnUse" gradientTransform="translate(-2.3553731,-0.40629324)">
      <stop stop-color="#1B1A22" id="stop382"/>
      <stop offset="1" stop-color="#262531" id="stop384"/>
    </linearGradient>
    <linearGradient id="paint1_linear_153_1141" x1="5.5570502" y1="12.9505" x2="14.1078" y2="15.35" gradientUnits="userSpaceOnUse" gradientTransform="translate(-2.3553731,-0.40629324)">
      <stop stop-color="#FFA06A" id="stop387"/>
      <stop offset="1" stop-color="#F1BF78" id="stop389"/>
    </linearGradient>
    <linearGradient id="paint2_linear_153_1141" x1="9.0255804" y1="1" x2="32.292999" y2="8.3697004" gradientUnits="userSpaceOnUse">
      <stop stop-color="#1B1A22" id="stop392"/>
      <stop offset="1" stop-color="#262531" id="stop394"/>
    </linearGradient>
    <linearGradient id="paint3_linear_153_1141" x1="14.5574" y1="6.9200001" x2="23.1082" y2="9.3195496" gradientUnits="userSpaceOnUse">
      <stop stop-color="#FFA06A" id="stop397"/>
      <stop offset="1" stop-color="#F1BF78" id="stop399"/>
    </linearGradient>
  </defs>
</svg>

<svg xmlns="http://www.w3.org/2000/svg" fill="none" viewBox="-0.25 0.75 100.13 29.14">
<rect y="7.03046" width="18" height="24" rx="2" transform="rotate(-19.574 0 7.03046)" fill="url(#paint0_linear_153_1141)" stroke="url(#paint1_linear_153_1141)" stroke-width="0.5"/>
<rect x="9.00037" y="1" width="18" height="24" rx="2" fill="url(#paint2_linear_153_1141)" stroke="url(#paint3_linear_153_1141)" stroke-width="0.5"/>
<path d="M18.2668 12.4725L14.9853 6.32178L13.0004 7.35615L15.2755 12.988C15.3343 13.1334 15.3343 13.2938 15.2755 13.4387L13.0004 19.0706L14.9853 20.1049L18.2668 13.9542L21.5483 20.1049L23.5333 19.0706L21.2581 13.4387C21.1993 13.2933 21.1993 13.1329 21.2581 12.988L23.5333 7.35615L21.5483 6.32178L18.2668 12.4725Z" fill="#FCFCFD"/>
<path d="M39.8564 24.5498C38.5924 24.5498 37.4164 24.3178 36.3284 23.8538C35.2564 23.3897 34.3204 22.7498 33.5204 21.9338C32.7364 21.1018 32.1204 20.1258 31.6724 19.0058C31.2244 17.8858 31.0004 16.6538 31.0004 15.3098C31.0004 13.9818 31.2164 12.7578 31.6484 11.6378C32.0964 10.5018 32.7204 9.52575 33.5204 8.70975C34.3204 7.87775 35.2564 7.23775 36.3284 6.78975C37.4004 6.32575 38.5764 6.09375 39.8564 6.09375C41.1204 6.09375 42.2484 6.30975 43.2404 6.74175C44.2484 7.17375 45.0964 7.74175 45.7844 8.44575C46.4724 9.13375 46.9684 9.88575 47.2724 10.7018L44.7284 11.9018C44.3444 10.9418 43.7284 10.1657 42.8804 9.57375C42.0484 8.96575 41.0404 8.66175 39.8564 8.66175C38.6724 8.66175 37.6244 8.94175 36.7124 9.50175C35.8004 10.0618 35.0884 10.8378 34.5764 11.8298C34.0804 12.8218 33.8324 13.9818 33.8324 15.3098C33.8324 16.6378 34.0804 17.8058 34.5764 18.8138C35.0884 19.8058 35.8004 20.5818 36.7124 21.1418C37.6244 21.6858 38.6724 21.9578 39.8564 21.9578C41.0404 21.9578 42.0484 21.6618 42.8804 21.0698C43.7284 20.4778 44.3444 19.7018 44.7284 18.7418L47.2724 19.9418C46.9684 20.7418 46.4724 21.4938 45.7844 22.1978C45.0964 22.9018 44.2484 23.4698 43.2404 23.9018C42.2484 24.3337 41.1204 24.5498 39.8564 24.5498Z" fill="url(#paint4_linear_153_1141)"/>
<path d="M54.0542 24.5498C53.1742 24.5498 52.3982 24.3978 51.7262 24.0938C51.0702 23.7738 50.5582 23.3418 50.1902 22.7978C49.8222 22.2378 49.6382 21.5818 49.6382 20.8298C49.6382 20.1258 49.7902 19.4938 50.0942 18.9338C50.4142 18.3738 50.9022 17.9018 51.5582 17.5178C52.2142 17.1338 53.0382 16.8617 54.0302 16.7017L58.5422 15.9578V18.0938L54.5582 18.7898C53.8382 18.9178 53.3102 19.1497 52.9742 19.4858C52.6382 19.8057 52.4702 20.2218 52.4702 20.7338C52.4702 21.2298 52.6542 21.6378 53.0222 21.9578C53.4062 22.2617 53.8942 22.4138 54.4862 22.4138C55.2222 22.4138 55.8622 22.2538 56.4062 21.9338C56.9662 21.6138 57.3982 21.1898 57.7022 20.6618C58.0062 20.1178 58.1582 19.5178 58.1582 18.8618V15.5258C58.1582 14.8858 57.9182 14.3657 57.4382 13.9657C56.9742 13.5497 56.3502 13.3418 55.5662 13.3418C54.8462 13.3418 54.2142 13.5338 53.6702 13.9178C53.1422 14.2858 52.7502 14.7657 52.4942 15.3577L50.2382 14.2298C50.4782 13.5898 50.8702 13.0297 51.4142 12.5497C51.9582 12.0537 52.5902 11.6698 53.3102 11.3978C54.0462 11.1258 54.8222 10.9897 55.6382 10.9897C56.6622 10.9897 57.5662 11.1818 58.3502 11.5658C59.1502 11.9498 59.7662 12.4858 60.1982 13.1737C60.6462 13.8457 60.8702 14.6298 60.8702 15.5258V24.2618H58.2782V21.9098L58.8302 21.9818C58.5262 22.5098 58.1342 22.9657 57.6542 23.3498C57.1902 23.7338 56.6542 24.0298 56.0462 24.2378C55.4542 24.4458 54.7902 24.5498 54.0542 24.5498Z" fill="url(#paint5_linear_153_1141)"/>
<path d="M64.5212 24.2618V11.2778H67.1132V13.8938L66.8732 13.5098C67.1612 12.6617 67.6252 12.0538 68.2652 11.6858C68.9052 11.3018 69.6732 11.1098 70.5692 11.1098H71.3612V13.5818H70.2332C69.3372 13.5818 68.6092 13.8618 68.0492 14.4218C67.5052 14.9658 67.2332 15.7498 67.2332 16.7738V24.2618H64.5212Z" fill="url(#paint6_linear_153_1141)"/>
<path d="M79.6966 24.5498C78.4486 24.5498 77.3286 24.2537 76.3366 23.6618C75.3605 23.0538 74.5846 22.2378 74.0086 21.2138C73.4486 20.1898 73.1686 19.0378 73.1686 17.7577C73.1686 16.4777 73.4566 15.3258 74.0326 14.3018C74.6086 13.2778 75.3846 12.4698 76.3606 11.8778C77.3366 11.2858 78.4406 10.9897 79.6726 10.9897C80.7126 10.9897 81.6326 11.1978 82.4326 11.6138C83.2326 12.0297 83.8646 12.6058 84.3286 13.3418L83.9206 13.9657V6.09375H86.6086V24.2618H84.0406V21.6218L84.3526 22.1258C83.9046 22.9098 83.2646 23.5098 82.4326 23.9258C81.6006 24.3418 80.6886 24.5498 79.6966 24.5498ZM79.9606 22.0298C80.7126 22.0298 81.3846 21.8458 81.9766 21.4778C82.5846 21.1098 83.0566 20.6058 83.3926 19.9658C83.7446 19.3098 83.9206 18.5737 83.9206 17.7577C83.9206 16.9417 83.7446 16.2138 83.3926 15.5738C83.0566 14.9338 82.5846 14.4298 81.9766 14.0618C81.3846 13.6938 80.7126 13.5098 79.9606 13.5098C79.2086 13.5098 78.5285 13.6938 77.9206 14.0618C77.3125 14.4298 76.8406 14.9338 76.5046 15.5738C76.1686 16.2138 76.0006 16.9417 76.0006 17.7577C76.0006 18.5737 76.1686 19.3098 76.5046 19.9658C76.8406 20.6058 77.3046 21.1098 77.8966 21.4778C78.5046 21.8458 79.1926 22.0298 79.9606 22.0298Z" fill="url(#paint7_linear_153_1141)"/>
<path d="M95.0547 24.5498C93.7267 24.5498 92.5587 24.2218 91.5507 23.5658C90.5587 22.9098 89.8627 22.0298 89.4627 20.9258L91.5507 19.9418C91.9027 20.6778 92.3827 21.2618 92.9907 21.6938C93.6147 22.1257 94.3027 22.3418 95.0547 22.3418C95.6947 22.3418 96.2147 22.1978 96.6147 21.9098C97.0147 21.6218 97.2147 21.2298 97.2147 20.7338C97.2147 20.4138 97.1267 20.1578 96.9507 19.9658C96.7747 19.7578 96.5507 19.5898 96.2787 19.4618C96.0227 19.3338 95.7587 19.2378 95.4867 19.1737L93.4467 18.5978C92.3267 18.2778 91.4867 17.7978 90.9267 17.1578C90.3827 16.5018 90.1107 15.7418 90.1107 14.8778C90.1107 14.0938 90.3107 13.4138 90.7107 12.8378C91.1107 12.2458 91.6627 11.7898 92.3667 11.4697C93.0707 11.1497 93.8627 10.9897 94.7427 10.9897C95.9267 10.9897 96.9827 11.2858 97.9107 11.8778C98.8387 12.4538 99.4947 13.2618 99.8787 14.3018L97.7907 15.2858C97.5347 14.6618 97.1267 14.1658 96.5667 13.7978C96.0227 13.4298 95.4067 13.2458 94.7187 13.2458C94.1267 13.2458 93.6547 13.3898 93.3027 13.6778C92.9507 13.9498 92.7747 14.3097 92.7747 14.7577C92.7747 15.0618 92.8547 15.3178 93.0147 15.5258C93.1747 15.7178 93.3827 15.8778 93.6387 16.0058C93.8947 16.1178 94.1587 16.2138 94.4307 16.2938L96.5427 16.9178C97.6147 17.2218 98.4387 17.7018 99.0147 18.3578C99.5907 18.9978 99.8787 19.7658 99.8787 20.6618C99.8787 21.4298 99.6707 22.1098 99.2547 22.7018C98.8547 23.2778 98.2947 23.7338 97.5747 24.0698C96.8547 24.3898 96.0147 24.5498 95.0547 24.5498Z" fill="url(#paint8_linear_153_1141)"/>
<defs>
<linearGradient id="paint0_linear_153_1141" x1="0.0252101" y1="7.03046" x2="23.2927" y2="14.4002" gradientUnits="userSpaceOnUse">
<stop stop-color="#1B1A22"/>
<stop offset="1" stop-color="#262531"/>
</linearGradient>
<linearGradient id="paint1_linear_153_1141" x1="5.55705" y1="12.9505" x2="14.1078" y2="15.35" gradientUnits="userSpaceOnUse">
<stop stop-color="#FFA06A"/>
<stop offset="1" stop-color="#F1BF78"/>
</linearGradient>
<linearGradient id="paint2_linear_153_1141" x1="9.02558" y1="1" x2="32.293" y2="8.3697" gradientUnits="userSpaceOnUse">
<stop stop-color="#1B1A22"/>
<stop offset="1" stop-color="#262531"/>
</linearGradient>
<linearGradient id="paint3_linear_153_1141" x1="14.5574" y1="6.92" x2="23.1082" y2="9.31955" gradientUnits="userSpaceOnUse">
<stop stop-color="#FFA06A"/>
<stop offset="1" stop-color="#F1BF78"/>
</linearGradient>
<linearGradient id="paint4_linear_153_1141" x1="52.2648" y1="10.6462" x2="64.2302" y2="27.3546" gradientUnits="userSpaceOnUse">
<stop stop-color="#FFA06A"/>
<stop offset="1" stop-color="#F1BF78"/>
</linearGradient>
<linearGradient id="paint5_linear_153_1141" x1="52.2648" y1="10.6462" x2="64.2302" y2="27.3546" gradientUnits="userSpaceOnUse">
<stop stop-color="#FFA06A"/>
<stop offset="1" stop-color="#F1BF78"/>
</linearGradient>
<linearGradient id="paint6_linear_153_1141" x1="52.2648" y1="10.6462" x2="64.2302" y2="27.3546" gradientUnits="userSpaceOnUse">
<stop stop-color="#FFA06A"/>
<stop offset="1" stop-color="#F1BF78"/>
</linearGradient>
<linearGradient id="paint7_linear_153_1141" x1="52.2648" y1="10.6462" x2="64.2302" y2="27.3546" gradientUnits="userSpaceOnUse">
<stop stop-color="#FFA06A"/>
<stop offset="1" stop-color="#F1BF78"/>
</linearGradient>
<linearGradient id="paint8_linear_153_1141" x1="52.2648" y1="10.6462" x2="64.2302" y2="27.3546" gradientUnits="userSpaceOnUse">
<stop stop-color="#FFA06A"/>
<stop offset="1" stop-color="#F1BF78"/>
</linearGradient>
</defs>
</svg>
